X: 601
T: Shi xiang
L: 1/8
M: 2/4
K: F
c c d f [I:setbarnb 1]| 
c3f | 
d c c c/ D/ | 
F4 | 
G Ac2 | 
c DF2 | 
G c/ c/ c D | 
G2D c | 
G/ A/ G/ F/ E D | 
z2D c | 
G/ A/ G/ F/ E D | 
F4 |]

@@@ Tune index: 9475
